X:1
T:Title
%%score ( 1 2 ) { 3 | 4 }
L:1/8
Q:1/4=93
M:6/8
K:G
V:1 treble nm="Grand Piano, Soprano"
V:2 treble 
V:3 bass nm="Choir Pad, Over the Tide, 1887"
V:4 bass 
V:1
 [DB][DB][DB] [DB][DA][DG] | [DG]3 .[B,D]3 | [DA][DA][DA] [DA][DB][DA] | d6 | %4
w: By~William~James~Kirkpatrick * * * * *||||
 [DB][DB][DB] [DB][CA][B,G] | [B,D]3 .[DG]3 | [DA][DA][DA] [^CB][CB][CA] | D6 | c3 z3 | %9
w: |||||
 [DB][DG][GB] [Gd]3 | [Fd][FA][FA] [FA][EG][EA] | [^DB]2 [EB] .[DB]3 | B3 z3 | %13
w: ||||
 [B,D][B,G][DB] [Gd]2 [GB] | [FA][FA][FA] [FA][GB][DA] | G6- | G6 |] %17
w: ||||
V:2
 x6 | x6 | x6 | D3 C3 | x6 | x6 | x6 | x6 | FFF [Dc][DB][DA] | x6 | x6 | x6 | DDD [DB][CA][B,G] | %13
 x6 | x6 | DB,E D3- | D6 |] %17
V:3
 G,G,G, G,CB, | B,3 .G,3 | F,F,F, F,G,F, | G,3 F,3 | G,G,G, G,F,G, | G,3 .G,3 | F,F,F, G,G,G, | %7
 F,6 | A,A,A, A,G,F, | G,B,D B,3 | A,DC B,B,E, | F,2 G, .F,3 | G,G,G, G,D,D, | %13
 G,G,G, B,2[K:treble] D | CCC CDC | B,G,C B,3- | B,6 |] %17
V:4
 z3 z G,G, | G,3 z3 | D,D,D, D,D,D, | B,,3 A,,3 | G,,G,,G,, G,,G,,G,, | G,,3 .B,,3 | %6
 A,,A,,A,, A,,A,,A,, | D,6 | D,D,D, D,D,D, | z G,G, G,3 | D,D,D, E,E,C, | B,,2 E, .B,,3 | %12
 G,,G,,G,, G,,G,,G,, | G,,G,,G,, G,2 G, | D,D,D, D,D,D, | G,,6- | G,,6 |] %17

